src/4-icons/date.svg

<svg width="260" height="260" viewBox="0 0 260 260" fill="none" xmlns="http://www.w3.org/2000/svg">
<path d="M204.802 59.1245H175.994V37.3363C175.994 35.9063 174.824 34.7363 173.394 34.7363H168.194C166.764 34.7363 165.594 35.9063 165.594 37.3363V59.1245H95.6019V37.3363C95.6019 35.9063 94.4319 34.7363 93.0019 34.7363H87.8019C86.3719 34.7363 85.2019 35.9063 85.2019 37.3363V59.1245H55.1973C48.0209 59.1509 42.2227 64.9481 42.1973 72.1245V198.693C42.2237 205.868 48.0209 211.666 55.1973 211.693H204.802C211.978 211.667 217.775 205.869 217.802 198.693V72.1245C217.776 64.9481 211.978 59.1499 204.802 59.1245ZM53.3783 70.3035C53.8719 69.8089 54.4965 69.5489 55.1983 69.5235H85.1765V89.7517C85.1765 91.1817 86.3465 92.3517 87.7765 92.3517H92.9765C94.4065 92.3517 95.5765 91.1817 95.5765 89.7517V69.5235H165.568V89.7517C165.568 91.1817 166.738 92.3517 168.168 92.3517H173.368C174.798 92.3517 175.968 91.1817 175.968 89.7517V69.5235H204.776C205.478 69.5235 206.102 69.8089 206.596 70.3035C207.091 70.7981 207.351 71.4217 207.376 72.1235V103.974H52.5983V72.1235C52.5983 71.4217 52.8847 70.7981 53.3783 70.3035ZM206.622 200.512C206.127 201.006 205.504 201.266 204.802 201.292H55.1973C54.4955 201.292 53.8709 201.006 53.3773 200.512C52.8837 200.017 52.6237 199.394 52.5973 198.692V114.374H207.402V198.692C207.402 199.394 207.116 200.017 206.622 200.512Z" fill="black"/>
</svg>

<svg width="260" height="260" fill="none" xmlns="http://www.w3.org/2000/svg"><path d="M204.802 59.124h-28.808V37.337c0-1.43-1.17-2.6-2.6-2.6h-5.2c-1.43 0-2.6 1.17-2.6 2.6v21.788H95.602V37.337c0-1.43-1.17-2.6-2.6-2.6h-5.2c-1.43 0-2.6 1.17-2.6 2.6v21.788H55.197c-7.176.027-12.974 5.824-13 13v126.569c.027 7.175 5.824 12.973 13 13h149.605c7.176-.026 12.973-5.824 13-13V72.124c-.026-7.176-5.824-12.974-13-13ZM53.378 70.304a2.642 2.642 0 0 1 1.82-.78h29.979v20.228c0 1.43 1.17 2.6 2.6 2.6h5.2c1.43 0 2.6-1.17 2.6-2.6V69.524h69.991v20.228c0 1.43 1.17 2.6 2.6 2.6h5.2c1.43 0 2.6-1.17 2.6-2.6V69.524h28.808c.702 0 1.326.285 1.82.78a2.64 2.64 0 0 1 .78 1.82v31.85H52.598v-31.85c0-.702.287-1.326.78-1.82Zm153.244 130.208a2.65 2.65 0 0 1-1.82.78H55.197c-.702 0-1.326-.286-1.82-.78a2.654 2.654 0 0 1-.78-1.82v-84.318h154.805v84.318c0 .702-.286 1.325-.78 1.82Z" fill="#000"/></svg>
